img/svgicons/sale.svg

<svg width="82" height="32" viewBox="0 0 82 32" fill="none" xmlns="http://www.w3.org/2000/svg">
<path d="M4.13445 0.559814C4.13445 0.559814 0 1.40249 0 5.65591C0 9.90895 0 31.6729 0 31.6729C0 31.6729 0.459071 26.4316 4.13445 26.4316H82L74.0596 13.0347L82 0.559814H4.13445V0.559814Z" fill="#DD133B"/>
<path d="M22.47 10.9H24.24L26.68 18H25L24.45 16.41H22.24L21.7 18H20.02L22.47 10.9ZM24.18 15.28L23.35 12.55L22.5 15.28H24.18ZM28.0092 18V10.9H29.6392V13.65H30.1992L32.1792 10.9H33.9992L31.4592 14.33L34.2192 18H32.2292L30.1492 15.14H29.6392V18H28.0092ZM40.9091 19.36V18H35.6691V10.9H37.3091V16.56H39.7391V10.9H41.3791V16.56H42.3491V19.36H40.9091ZM43.9751 18V10.9H45.6151V15.67L48.6751 10.9H50.2051V18H48.5651V13.26L45.5451 18H43.9751ZM52.0209 18L53.7009 15.22C53.2809 15.06 52.9542 14.7967 52.7209 14.43C52.4875 14.0633 52.3709 13.6367 52.3709 13.15C52.3709 12.71 52.4709 12.3233 52.6709 11.99C52.8775 11.65 53.1575 11.3833 53.5109 11.19C53.8709 10.9967 54.2842 10.9 54.7509 10.9H57.7509V18H56.1109V15.41H55.6109C55.5709 15.41 55.5275 15.41 55.4809 15.41C55.4409 15.41 55.4009 15.41 55.3609 15.41L53.8709 18H52.0209ZM54.9609 14.02H56.1109V12.29H54.9809C54.8142 12.29 54.6575 12.32 54.5109 12.38C54.3709 12.44 54.2575 12.5333 54.1709 12.66C54.0842 12.78 54.0409 12.9433 54.0409 13.15C54.0409 13.35 54.0809 13.5167 54.1609 13.65C54.2409 13.7767 54.3509 13.87 54.4909 13.93C54.6375 13.99 54.7942 14.02 54.9609 14.02Z" fill="white"/>
</svg>

<svg width="82" height="32" fill="none" xmlns="http://www.w3.org/2000/svg"><path d="M4.134.56S0 1.402 0 5.656v26.017s.46-5.241 4.134-5.241H82l-7.94-13.397L82 .56H4.134Z" fill="#DD133B"/><path d="M22.47 10.9h1.77l2.44 7.1H25l-.55-1.59h-2.21L21.7 18h-1.68l2.45-7.1Zm1.71 4.38-.83-2.73-.85 2.73h1.68ZM28.01 18v-7.1h1.63v2.75h.56l1.98-2.75H34l-2.54 3.43L34.22 18h-1.99l-2.08-2.86h-.51V18h-1.63Zm12.9 1.36V18h-5.24v-7.1h1.64v5.66h2.43V10.9h1.64v5.66h.97v2.8h-1.44ZM43.974 18v-7.1h1.64v4.77l3.06-4.77h1.53V18h-1.64v-4.74L45.545 18h-1.57Zm8.046 0 1.68-2.78a1.951 1.951 0 0 1-.98-.79c-.233-.367-.35-.793-.35-1.28 0-.44.1-.827.3-1.16a2.2 2.2 0 0 1 .84-.8 2.58 2.58 0 0 1 1.24-.29h3V18h-1.64v-2.59h-.75L53.87 18h-1.85Zm2.94-3.98h1.15v-1.73h-1.13c-.167 0-.324.03-.47.09a.773.773 0 0 0-.34.28c-.087.12-.13.283-.13.49 0 .2.04.367.12.5.08.127.19.22.33.28.147.06.303.09.47.09Z" fill="#fff"/></svg>
